src/images/mahasiswa/mahasiswa-female-2.svg

<svg width="120" height="120" viewBox="0 0 120 120" fill="none" xmlns="http://www.w3.org/2000/svg">
<path d="M120 60C120 93.1377 93.1369 120 60.0005 120C26.8631 120 0 93.1377 0 60C0 26.8623 26.8631 0 60.0005 0C93.1369 0 120 26.8623 120 60Z" fill="#F8A037"/>
<path d="M60.0005 120C76.28 120 91.0359 113.507 101.846 102.98C100.911 96.8247 99.5574 91.4965 97.5269 88.8447C95.4556 86.1398 86.6439 83.299 80.6997 81.477C77.1016 78.8793 71.4169 76.6291 71.4169 76.6291C71.4169 76.6291 71.3812 76.7242 71.3158 76.8948C71.3485 76.81 71.374 76.7416 71.3904 76.6986C71.1645 75.8464 71.14 75.128 71.139 74.9205V71.9285C71.9279 70.9117 72.6278 69.853 73.2532 68.7749C84.0606 64.0712 80.8907 49.2518 80.8907 49.2518C82.2948 50.6569 85.3032 50.2563 85.3032 50.2563C84.3917 50.0489 83.8245 48.9994 83.3688 47.4206C85.9 48.3301 88.6151 48.7266 91.319 48.4977C87.1038 46.4498 84.6604 41.9555 83.1286 37.5267C81.5979 33.0978 80.67 28.388 78.2226 24.3914C75.7957 20.4295 71.9136 17.3812 67.4878 15.9649C63.0621 14.5486 58.1315 14.7765 53.8549 16.5954C51.2256 17.7133 49.0705 19.6774 47.9383 22.3006C45.6585 22.0635 43.3889 23.1999 41.8275 24.8768C40.267 26.5557 39.3279 28.7191 38.6525 30.9079C36.9235 36.5109 36.7457 42.4839 37.1585 48.3321C37.5448 53.8023 38.5125 59.4369 41.6006 63.968C43.1385 66.2243 45.3202 68.1342 47.7789 69.3206C48.1314 69.9021 48.5013 70.4794 48.9029 71.0435V74.8562H48.861C48.861 74.8562 48.8805 75.6819 48.6107 76.6997C48.5933 76.6547 48.5831 76.6291 48.5831 76.6291C48.5831 76.6291 42.8994 78.8793 39.3014 81.477C33.3571 83.299 24.5445 86.1398 22.4741 88.8447C20.4437 91.4965 19.0887 96.8247 18.1547 102.98C28.9641 113.507 43.72 120 60.0005 120Z" fill="#5B3613"/>
</svg>

<?xml version="1.0" encoding="UTF-8" standalone="no"?>
<svg width="120" xmlns="http://www.w3.org/2000/svg" viewBox="0 0 120 120" height="120">
 <path d="m120 60c0 33.138-26.863 60-60 60s-60-26.862-60-60 26.863-60 60-60 60 26.862 60 60z" fill="#F8A037"/>
 <path d="m60 120c16.28 0 31.036-6.49 41.85-17.02-0.94-6.155-2.293-11.484-4.323-14.135-2.071-2.705-10.883-5.546-16.827-7.368-3.598-2.598-9.283-4.848-9.283-4.848s-0.036 0.095-0.101 0.266c0.032-0.085 0.058-0.153 0.074-0.196-0.226-0.853-0.25-1.571-0.251-1.779v-2.992c0.789-1.016 1.489-2.075 2.114-3.153 10.808-4.704 7.638-19.523 7.638-19.523 1.404 1.405 4.412 1.004 4.412 1.004-0.911-0.207-1.479-1.257-1.934-2.835 2.531 0.909 5.246 1.306 7.95 1.077-4.215-2.048-6.659-6.542-8.19-10.971s-2.459-9.139-4.906-13.136c-2.427-3.961-6.309-7.01-10.735-8.426s-9.356-1.189-13.633 0.63c-2.629 1.118-4.785 3.082-5.917 5.706-2.28-0.237-4.549 0.899-6.11 2.576-1.561 1.679-2.5 3.842-3.176 6.031-1.728 5.603-1.906 11.576-1.494 17.424 0.387 5.47 1.354 11.105 4.443 15.636 1.537 2.256 3.719 4.166 6.178 5.353 0.352 0.581 0.722 1.158 1.124 1.723v3.812h-0.042s0.019 0.826-0.25 1.844c-0.018-0.045-0.028-0.071-0.028-0.071s-5.684 2.25-9.282 4.848c-5.944 1.822-14.757 4.663-16.827 7.368-2.03 2.651-3.385 7.98-4.319 14.135 10.809 10.53 25.565 17.02 41.845 17.02z" fill="#5B3613"/>
</svg>
